X: 46
T:The Man of the House
M:4/4
L:1/8
R:Reel
O:Ireland
K:G
D | E BE GABG | (3EEE BE FDDF |
| ((3E{G}E{D}E) BE GABc |1 (3dcB cA BE {G} E :|
|2 (3dcB (3cBA B(E {G}(3EDE) ||
efge fgaf | gfed e(B (3BAB) |
| ef (3gfe fgaf | gfed Beed |
| efge fgaf | gf ed efga |
| (3bag (3agf gfed | eBBA AE E ||
